X:1
T:Jesus Has Lifted Me
T:Haldor Lillenas
T:Jesus Has Lifted Me
T:Public Domain
T:Public Domain
C:Haldor Lillenas
Z:Public Domain
%%score ( 1 2 ) ( 3 4 )
L:1/8
M:6/8
K:Eb
V:1 treble 
V:2 treble 
V:3 bass 
V:4 bass 
V:1
 [EG][EG][EG] [EG][EF]E | [EB][EB][DB] [EB]3 | [Ec][Ec][Ec] [EB][EB][EG] | [CG][CF][CE] [DF]3 | %4
w: 1.~Out of the depths to the|glor- y a- bove,|I have been lift- ed in|won- der- ful love;|
w: 2.~Out of the world in- to|heav- en- ly rest,|In- to the land of the|ran- somed and blessed,|
w: 3.~Out of my- self in- to|Him I a- dore,|The- re to hide in His|love ev- er- more;|
 [EG][EG][EG] [EG][EF]E | [Ge][Ge][Bd] [Ac]2 [^Fc] | [GB][GB][Ac] [EG]2 [DF] | (E2 C [B,E]2) z || %8
w: From ev- ery fet- ter my|it is free, For Je-|sus has lift- ed me!||
w: There in the glor- y with|I shall be, For Je-|sus has lift- ed me!|Je- * *|
w: Through end- less ag- es His|y to see, My Je-|sus has lift- ed me!||
"^Refrain" [GB][^F=A][GB] [Ge]2 [Gc] | [Ad]6 | [DA][DG][DA] [Bd]2 [Ac] | (G2 A G3) | %12
w: ||||
w: has lift- ed me! Je-|sus|has lift- ed me! Out|of * *|
w: ||||
 [EG][EG][FA] [GB][^F=A][GB] | [Be][Be][Bd] [Ac]2 [^Fc] | [GB][GB][Ac] [EG]2 [DF] | %15
w: |||
w: night in- to glor- i- ous|light, Yes, Je- sus has|lift- ed me! * *|
w: |||
 (E2 B, [B,E]2) z |] %16
w: |
w: |
w: |
V:2
 x6 | x6 | x6 | x6 | x5 E | x6 | x6 | E3- x3 || x6 | x6 | x6 | B6 | x6 | x6 | x6 | E3- x3 |] %16
w: ||||spir-||||||||||||
w: ||||Him|||sus||||the|||||
w: ||||glor-||||||||||||
V:3
 [E,B,][E,B,][E,B,] [E,B,][E,A,][E,G,] | [E,G,][E,G,][B,,A,] [E,G,]3 | %2
 [A,,A,][A,,A,][A,,A,] [E,G,][E,G,][E,B,] | [F,=A,][F,A,][F,A,] [B,,B,]3 | %4
 [E,B,][E,B,][E,B,] [E,B,][E,A,][E,G,] | [E,B,][E,E][G,E] [A,E]2 [=A,E] | %6
 [B,E][B,E][B,D] B,2 [B,,A,] | (G,2 A, [E,G,]2) z || [E,E][E,E][E,E] [E,B,]2 [E,B,] | %9
 ([F,B,]2 [F,B,] [B,,B,]3) | [B,,B,][B,,B,][B,,B,] [B,,B,]2 [D,B,] | (B,E[F,D] [E,E]3) | %12
 [E,B,][E,B,][E,B,] [E,E][E,E][E,E] | [G,E][G,E][G,E] [A,E]2 [=A,E] | [B,E][B,E][B,D] B,2 [B,,A,] | %15
 (G,2 A, G,2) z |] %16
V:4
 x6 | x6 | x6 | x6 | x6 | x6 | x6 | E,3- x3 || x6 | x6 | x6 | E,2 x4 | x6 | x6 | x6 | E,3- E,2 x |] %16

